build/category/PregnantOutline.svg

<svg xmlns="http://www.w3.org/2000/svg" fill="none" viewBox="0 0 24 24" focusable="false"><path d="M0 0H24V24H0z"/><path fill="#74767B" fill-rule="evenodd" d="M12.9521 5.52351C12.0258 6.70215 9.33369 6.73106 8.54918 4.33803C8.48927 4.15528 8.63339 3.97836 8.82384 3.95166C9.55916 3.84856 9.94688 3.43494 10.4172 2.93323C10.5719 2.7681 10.7357 2.59343 10.9237 2.41714C10.9437 2.3976 10.9642 2.37863 10.9852 2.36025L11.0047 2.34253C11.258 2.12817 11.5777 2 11.9276 2C12.823 2 13.5189 2.84364 13.4178 3.80655L13.3298 4.64508C13.294 4.98593 13.1565 5.29024 12.9521 5.52351ZM7.82605 17.6529L8.88708 10.9772L8.94527 10.4746C9.0871 9.24953 9.67776 8.12045 10.6032 7.30533C10.8266 7.10856 11.1141 7 11.4118 7L12.4372 7C12.8147 7 13.1734 7.16402 13.4204 7.44944L13.6948 7.76661C14.4018 8.58387 14.4446 9.78315 13.7975 10.6487L13.7589 10.7003C13.6517 10.8437 13.7022 11.0492 13.8637 11.1265C16.0527 12.1747 16.844 14.8934 15.5592 16.9526L14.9938 17.8588C14.939 17.9466 14.8428 18 14.7393 18L13.4458 18L13.4458 21.3501C13.4458 21.7091 13.1548 22.0001 12.7958 22.0001C12.4368 22.0001 12.1458 21.7091 12.1458 21.3501L12.1458 18L10.8474 18L10.8474 21.3501C10.8474 21.7091 10.5563 22.0001 10.1974 22.0001C9.83838 22.0001 9.54736 21.7091 9.54736 21.3501L9.54736 18L8.12233 18C7.93787 18 7.7971 17.8351 7.82605 17.6529ZM9.29382 16.7L10.1012 11.6202C10.2715 12.0535 10.511 12.4654 10.8187 12.839L12.1017 14.3967C12.3299 14.6737 12.7396 14.7134 13.0167 14.4851C13.2937 14.2569 13.3334 13.8472 13.1051 13.5702L11.8221 12.0125C10.9502 10.954 10.8481 9.46404 11.554 8.3L12.4372 8.3L12.7116 8.61717C13.0191 8.9725 13.0376 9.49393 12.7563 9.87024L12.7177 9.92188C12.1199 10.7214 12.4018 11.8679 13.3022 12.299C14.7922 13.0124 15.3307 14.8629 14.4563 16.2644L14.1845 16.7L9.29382 16.7Z"/></svg>

<svg xmlns="http://www.w3.org/2000/svg" fill="none" viewBox="0 0 24 24" focusable="false"><path fill="#74767B" fill-rule="evenodd" d="M8.54 4.33c.79 2.4 3.48 2.37 4.41 1.19.2-.23.34-.54.37-.88l.09-.84c.1-.96-.59-1.8-1.49-1.8-.35 0-.67.12-.92.34l-.02.02c-.02.01-.04.03-.06.05-.19.18-.35.35-.51.52-.47.5-.86.91-1.59 1.02-.19.02-.34.2-.28.38m-.72 13.32 1.06-6.68.06-.5c.14-1.23.73-2.35 1.66-3.17.22-.2.51-.3.81-.3h1.02c.38 0 .74.16.99.44l.27.32c.71.82.75 2.02.1 2.88l-.04.06c-.1.14-.05.34.11.42a4.07 4.07 0 0 1 1.69 5.83l-.56.9c-.06.09-.15.15-.26.15h-1.29v3.35c0 .35-.29.65-.65.65s-.65-.3-.65-.65V18h-1.3v3.35c0 .35-.29.65-.65.65s-.65-.3-.65-.65V18H8.12c-.19 0-.33-.17-.3-.35m1.47-.95.81-5.08c.17.43.41.84.71 1.21l1.29 1.56c.23.28.63.32.91.09a.64.64 0 0 0 .09-.91l-1.28-1.56a3.225 3.225 0 0 1-.27-3.72h.88l.28.32c.3.36.32.88.04 1.26l-.04.05c-.59.8-.31 1.94.59 2.37 1.49.72 2.03 2.57 1.15 3.97l-.27.44z"/></svg>
